X:341
T:The Old Rugged Cross
C:Words and Music by George Bennard
N:Transcribed by Richard Schwartz
R:bluegrass
L:1/8
Q:1/4=100
M:3/4
K:G
z4 Bc | "G"d3^c e2 | d4 dd | "C"e3^d f2 | "A"e4 ee | "D"f3e d2 | "D7"c2 d2 c2 | 
"G"B6 | z4 Bc | "G"d3^c e2 | d4 dd | "C"e3^d f2 | "A"e4 ee | "D"f3e d2 | "D7"c'2 b2 a2 | 
"G"g6 | z4 fg | "D"a3a a2 | a2 g2 f2 | "G"g6 | z4 gf | "C"e3e e2 | g2 f2 e2 | 
"G"d6 | z4 dg | "G"b3b b2 | b2 c'2 b2 | "C"e6 | z4 c'c' | "G"b3a g2 | "D"d2 f2 a2 | 
"G"g6 | z6 | 


